SVG_Azure_All/StorSimple Data Manager.svg

<?xml version="1.0" encoding="UTF-8" standalone="no"?>
<!-- Generated by Microsoft Visio, SVG Export StorSimple Data Manager.svg Page-1 -->

<svg
   xmlns:dc="http://purl.org/dc/elements/1.1/"
   xmlns:cc="http://creativecommons.org/ns#"
   xmlns:rdf="http://www.w3.org/1999/02/22-rdf-syntax-ns#"
   xmlns:svg="http://www.w3.org/2000/svg"
   xmlns="http://www.w3.org/2000/svg"
   xmlns:sodipodi="http://sodipodi.sourceforge.net/DTD/sodipodi-0.dtd"
   xmlns:inkscape="http://www.inkscape.org/namespaces/inkscape"
   width="0.59060395in"
   height="0.78697109in"
   viewBox="0 0 42.523324 56.661696"
   xml:space="preserve"
   class="st7"
   version="1.1"
   id="svg56"
   sodipodi:docname="StorSimple Data Manager.svg"
   style="font-size:12px;overflow:visible;color-interpolation-filters:sRGB;fill:none;fill-rule:evenodd;stroke-linecap:square;stroke-miterlimit:3"
   inkscape:version="0.92.5 (2060ec1f9f, 2020-04-08)"><metadata
   id="metadata60"><rdf:RDF><cc:Work
       rdf:about=""><dc:format>image/svg+xml</dc:format><dc:type
         rdf:resource="http://purl.org/dc/dcmitype/StillImage" /></cc:Work></rdf:RDF></metadata><sodipodi:namedview
   pagecolor="#ffffff"
   bordercolor="#666666"
   borderopacity="1"
   objecttolerance="10"
   gridtolerance="10"
   guidetolerance="10"
   inkscape:pageopacity="0"
   inkscape:pageshadow="2"
   inkscape:window-width="640"
   inkscape:window-height="480"
   id="namedview58"
   showgrid="false"
   inkscape:zoom="1.3403048"
   inkscape:cx="28.346503"
   inkscape:cy="37.774538"
   inkscape:window-x="0"
   inkscape:window-y="0"
   inkscape:window-maximized="0"
   inkscape:current-layer="svg56" />
	<style
   type="text/css"
   id="style2">
	<![CDATA[
		.st1 {fill:url(#grad0-5);stroke:none;stroke-linecap:butt;stroke-width:37.6997}
		.st2 {fill:#f2f2f2}
		.st3 {stroke:none;stroke-linecap:butt;stroke-width:37.6997}
		.st4 {fill:#50e6ff}
		.st5 {fill:#198ab3;stroke:none;stroke-linecap:butt;stroke-width:37.6997}
		.st6 {fill:#ffffff;stroke:none;stroke-linecap:butt;stroke-width:37.6997}
		.st7 {fill:none;fill-rule:evenodd;font-size:12px;overflow:visible;stroke-linecap:square;stroke-miterlimit:3}
	]]>
	</style>

	<defs
   id="Patterns_And_Gradients">
		<linearGradient
   id="grad0-5"
   x1="0"
   y1="77.414809"
   x2="45.610458"
   y2="77.414809"
   gradientTransform="scale(0.93158615,1.073438)"
   gradientUnits="userSpaceOnUse">
			<stop
   offset="0"
   stop-color="#005ba1"
   stop-opacity="1"
   id="stop4" />
			<stop
   offset="0.07"
   stop-color="#0060a9"
   stop-opacity="1"
   id="stop6" />
			<stop
   offset="0.36"
   stop-color="#0071c8"
   stop-opacity="1"
   id="stop8" />
			<stop
   offset="0.52"
   stop-color="#0078d4"
   stop-opacity="1"
   id="stop10" />
			<stop
   offset="0.64"
   stop-color="#0074cd"
   stop-opacity="1"
   id="stop12" />
			<stop
   offset="0.82"
   stop-color="#006abb"
   stop-opacity="1"
   id="stop14" />
			<stop
   offset="1"
   stop-color="#005ba1"
   stop-opacity="1"
   id="stop16" />
		</linearGradient>
	</defs>
	<g
   id="g54"
   transform="translate(-37.6997,-37.698597)">
		<title
   id="title20">Page-1</title>
		<g
   id="group844-1"
   transform="translate(37.6997,-37.6997)">
			<title
   id="title22">StorSimple Data Manager</title>
			<g
   id="shape845-2">
				<title
   id="title24">path21</title>
				<path
   d="M 21.23,90.86 C 9.5,90.86 0,87.53 0,83.1 v 41.16 c 0,4.23 9.33,7.7 20.93,7.8 h 0.3 c 11.73,0 21.26,-3.33 21.26,-7.7 V 83.2 c 0.03,4.26 -9.5,7.7 -21.26,7.66 z"
   class="st1"
   id="path26"
   inkscape:connector-curvature="0"
   style="fill:url(#grad0-5);stroke:none;stroke-width:37.6996994;stroke-linecap:butt" />
			</g>
			<g
   id="shape846-6"
   transform="translate(0.0333225,-41.1615)">
				<title
   id="title29">path23</title>
				<path
   d="m 42.49,124.36 c 0,4.27 -9.53,7.7 -21.26,7.67 C 9.5,131.99 0,128.69 0,124.26 c 0,-4.43 9.53,-7.73 21.19,-7.7 11.67,0.03 21.23,3.53 21.23,7.8 z"
   class="st2"
   id="path31"
   inkscape:connector-curvature="0"
   style="fill:#f2f2f2" />
				<path
   d="m 42.49,124.36 c 0,4.27 -9.53,7.7 -21.26,7.67 C 9.5,131.99 0,128.69 0,124.26 c 0,-4.43 9.53,-7.73 21.19,-7.7 11.67,0.03 21.23,3.53 21.23,7.8"
   class="st3"
   id="path33"
   inkscape:connector-curvature="0"
   style="stroke:none;stroke-width:37.6996994;stroke-linecap:butt" />
			</g>
			<g
   id="shape847-9"
   transform="translate(4.9984,-44.5944)">
				<title
   id="title36">path25</title>
				<path
   d="m 32.56,127.16 c 0,2.7 -7.3,4.9 -16.3,4.87 C 7.26,131.99 0,129.79 0,127.06 c 0,-2.73 7.3,-4.9 16.23,-4.87 8.93,0.04 16.29,2.24 16.26,4.97 z"
   class="st4"
   id="path38"
   inkscape:connector-curvature="0"
   style="fill:#50e6ff" />
				<path
   d="m 32.56,127.16 c 0,2.7 -7.3,4.9 -16.3,4.87 C 7.26,131.99 0,129.79 0,127.06 c 0,-2.73 7.3,-4.9 16.23,-4.87 8.93,0.04 16.29,2.24 16.26,4.97"
   class="st3"
   id="path40"
   inkscape:connector-curvature="0"
   style="stroke:none;stroke-width:37.6996994;stroke-linecap:butt" />
			</g>
			<g
   id="shape848-12"
   transform="translate(8.29734,-44.6278)">
				<title
   id="title43">path27</title>
				<path
   d="M 12.93,128.36 A 39.5206,39.5284 -180 0 0 0,130.23 a 37.9545,37.9619 -180 0 0 12.93,1.83 38.1211,38.1286 -180 0 0 12.93,-1.9 40.2537,40.2616 -180 0 0 -12.93,-1.8 z"
   class="st5"
   id="path45"
   inkscape:connector-curvature="0"
   style="fill:#198ab3;stroke:none;stroke-width:37.6996994;stroke-linecap:butt" />
			</g>
			<g
   id="shape849-14"
   transform="translate(9.29702,-11.032)">
				<title
   id="title48">path29</title>
				<path
   d="m 23.49,118.69 -2.73,-0.86 c -0.17,0 -0.27,0 -0.33,-0.3 l -0.57,-1.4 a 1.26626,1.26651 0 0 1 0,-0.5 c 0.4,-0.87 0.8,-1.74 1.27,-2.57 a 0.366549,0.366621 -180 0 0 0,-0.53327 C 20.66,112.06 20.19,111.66 19.76,111.16 a 0.433194,0.433279 -180 0 0 -0.733097,0 L 16.69,112.33 c -0.16,0 -0.26,0 -0.43,0 l -1.36,-0.57 a 0.466517,0.466608 0 0 1 -0.533163,-0.33329 C 14.03,110.53 13.7,109.63 13.43,108.73 a 0.366549,0.366621 -180 0 0 -0.333226,-0.29996 L 10.86,108.43 c -0.23,0 -0.26,0 -0.4,0.27 -0.26,0.93 -0.56,1.83 -0.9,2.73 0,0 0,0.3 -0.3,0.33 l -1.4,0.57 a 0.733098,0.733242 0 0 1 -0.533161,0 L 4.67,111.03 a 0.366549,0.366621 -180 0 0 -0.399872,0 C 3.77,111.56 3.27,112.13 2.7,112.63 a 0.266581,0.266633 -180 0 0 0,0.39995 C 3.13,113.86 3.53,114.73 4,115.56 a 0.599807,0.599925 0 0 1 0,0.53327 L 3.4,117.39 a 0.466517,0.466608 0 0 1 -0.399872,0.39995 C 2.1,118.13 1.2,118.46 0.3,118.73 c -0.23,0 -0.3,0.16 -0.3,0.36 v 2.34 c 0,0.23 0,0.33 0.27,0.4 0.93,0.26 1.83,0.63 2.73,0.9 a 0.433194,0.433279 0 0 1 0.333227,0.36662 C 3.33,123.53 3.73,123.99 3.9,124.46 a 0.63313,0.633254 0 0 1 0,0.49994 C 3.43,125.86 3.03,126.76 2.6,127.66 a 0.299904,0.299963 -180 0 0 0,0.36662 L 4.27,129.66 c 0,0 0,0.17 0.26,0 l 1.6,-0.83 1.17,-0.74 c 0,0 0.3,0 0.46,0 l 1.4,0.57 c 0.17,0 0.24,0.17 0.3,0.33 0.34,0.9 0.67,1.87 0.94,2.77 a 0.399872,0.39995 -180 0 0 0.366549,0.29996 L 12.96,132.06 c 0.24,0 0.3,0 0.4,-0.27 0.3,-0.9 0.64,-1.83 0.9,-2.73 a 0.49984,0.499938 0 0 1 0.299904,-0.33329 L 15.99,128.16 a 0.49984,0.499938 0 0 1 0.433194,0 l 2.666806,1.3 a 0.333226,0.333292 -180 0 0 0.399872,0 C 19.99,128.93 20.53,128.36 21.09,127.86 c 0.57,-0.5 0.17,-0.23 0,-0.47 a 26.9913,26.9966 0 0 1 -1.3,-2.6 0.366549,0.366621 0 0 1 0,-0.49994 C 19.99,123.83 20.19,123.39 20.36,122.93 a 0.433194,0.433279 0 0 1 0.333227,-0.33329 C 21.59,122.26 22.53,121.89 23.43,121.63 c 0.23,0 0.26,-0.17 0.26,-0.4 0,-0.8 0,-1.47 0,-2.17 0,-0.7 0.04,-0.27 -0.2,-0.37 z m -7.86,5.07 -0.27,0.23 a 5.26498,5.26601 0 0 1 -6.23,0.4 L 8.8,124.16 a 5.36494,5.366 0 0 1 -2.1,-3.33 5.09836,5.09936 0 0 1 1.53,-4.7 c 0.17,-0.17 0.17,-0.24 0,-0.4 l -0.43,-0.5 h 2.6 c 0,0 0.16,0 0.16,0 v 2.56 l -0.73,-0.7 c 0,0 0,-0.16 -0.33,0 a 3.73214,3.73287 -180 0 0 -0.37,5.24 2.66581,2.66633 -180 0 0 0.57,0.5 l 0.4,0.2 a 3.33226,3.33292 -180 0 0 1.86,0.56 3.33226,3.33292 -180 0 0 3.14,-1.83 3.63217,3.63288 -180 0 0 -0.64,-4.33 c 0,0 -0.33,-0.24 -0.36,-0.47 -0.04,-0.23 0,0 0,-0.23 a 5.39827,5.39933 -180 0 0 0.6,-0.64 c 0.46,-0.36 0.46,-0.36 0.8,0 a 5.43159,5.43265 0 0 1 0.13,7.67 z"
   class="st6"
   id="path50"
   inkscape:connector-curvature="0"
   style="fill:#ffffff;stroke:none;stroke-width:37.6996994;stroke-linecap:butt" />
			</g>
		</g>
	</g>
</svg>

<?xml version="1.0" encoding="UTF-8" standalone="no"?>
<!DOCTYPE svg PUBLIC "-//W3C//DTD SVG 1.1//EN" "http://www.w3.org/Graphics/SVG/1.1/DTD/svg11.dtd">
<!-- Generated by Microsoft Visio, SVG Export StorSimple Data Manager.svg Page-1 -->
<svg xmlns="http://www.w3.org/2000/svg" xmlns:xlink="http://www.w3.org/1999/xlink" xmlns:ev="http://www.w3.org/2001/xml-events"
		width="1.63777in" height="1.83416in" viewBox="0 0 117.919 132.059" xml:space="preserve" color-interpolation-filters="sRGB"
		class="st7">
	<style type="text/css">
	<![CDATA[
		.st1 {fill:url(#grad0-5);stroke:none;stroke-linecap:butt;stroke-width:37.6997}
		.st2 {fill:#f2f2f2}
		.st3 {stroke:none;stroke-linecap:butt;stroke-width:37.6997}
		.st4 {fill:#50e6ff}
		.st5 {fill:#198ab3;stroke:none;stroke-linecap:butt;stroke-width:37.6997}
		.st6 {fill:#ffffff;stroke:none;stroke-linecap:butt;stroke-width:37.6997}
		.st7 {fill:none;fill-rule:evenodd;font-size:12px;overflow:visible;stroke-linecap:square;stroke-miterlimit:3}
	]]>
	</style>

	<defs id="Patterns_And_Gradients">
		<linearGradient id="grad0-5" x1="0" y1="0" x2="1" y2="0" gradientTransform="rotate(0.13029273743654 0.5 0.5)">
			<stop offset="0" stop-color="#005ba1" stop-opacity="1"/>
			<stop offset="0.07" stop-color="#0060a9" stop-opacity="1"/>
			<stop offset="0.36" stop-color="#0071c8" stop-opacity="1"/>
			<stop offset="0.52" stop-color="#0078d4" stop-opacity="1"/>
			<stop offset="0.64" stop-color="#0074cd" stop-opacity="1"/>
			<stop offset="0.82" stop-color="#006abb" stop-opacity="1"/>
			<stop offset="1" stop-color="#005ba1" stop-opacity="1"/>
		</linearGradient>
	</defs>
	<g>
		<title>Page-1</title>
		<g id="group829-1" transform="translate(37.6997,-37.6997)">
			<title>StorSimple Data Manager</title>
			<g id="shape830-2">
				<title>path21</title>
				<path d="M21.23 90.86 C9.5 90.86 0 87.53 0 83.1 L0 124.26 C0 128.49 9.33 131.96 20.93 132.06 L21.23 132.06 C32.96
							 132.06 42.49 128.73 42.49 124.36 L42.49 83.2 C42.52 87.46 32.99 90.9 21.23 90.86 Z" class="st1"/>
			</g>
			<g id="shape831-6" transform="translate(0.0333225,-41.1615)">
				<title>path23</title>
				<path d="M42.49 124.36 C42.49 128.63 32.96 132.06 21.23 132.03 C9.5 131.99 0 128.69 0 124.26 C0 119.83 9.53 116.53
							 21.19 116.56 C32.86 116.59 42.42 120.09 42.42 124.36 L42.49 124.36 Z" class="st2"/>
				<path d="M42.49 124.36 C42.49 128.63 32.96 132.06 21.23 132.03 C9.5 131.99 0 128.69 0 124.26 C0 119.83 9.53 116.53
							 21.19 116.56 C32.86 116.59 42.42 120.09 42.42 124.36" class="st3"/>
			</g>
			<g id="shape832-9" transform="translate(4.9984,-44.5944)">
				<title>path25</title>
				<path d="M32.56 127.16 C32.56 129.86 25.26 132.06 16.26 132.03 C7.26 131.99 0 129.79 0 127.06 C0 124.33 7.3 122.16
							 16.23 122.19 C25.16 122.23 32.52 124.43 32.49 127.16 L32.56 127.16 Z" class="st4"/>
				<path d="M32.56 127.16 C32.56 129.86 25.26 132.06 16.26 132.03 C7.26 131.99 0 129.79 0 127.06 C0 124.33 7.3 122.16
							 16.23 122.19 C25.16 122.23 32.52 124.43 32.49 127.16" class="st3"/>
			</g>
			<g id="shape833-12" transform="translate(8.29734,-44.6278)">
				<title>path27</title>
				<path d="M12.93 128.36 A39.5206 39.5284 -180 0 0 -0 130.23 A37.9545 37.9619 -180 0 0 12.93 132.06 A38.1211 38.1286
							 -180 0 0 25.86 130.16 A40.2537 40.2616 -180 0 0 12.93 128.36 Z" class="st5"/>
			</g>
			<g id="shape834-14" transform="translate(9.29702,-11.032)">
				<title>path29</title>
				<path d="M23.49 118.69 L20.76 117.83 C20.59 117.83 20.49 117.83 20.43 117.53 L19.86 116.13 A1.26626 1.26651 0 0 1
							 19.86 115.63 C20.26 114.76 20.66 113.89 21.13 113.06 a0.366549 0.366621 -180 0 0 -3.19744E-14 -0.533267
							 C20.66 112.06 20.19 111.66 19.76 111.16 a0.433194 0.433279 -180 0 0 -0.733097 1.13687E-13 L16.69 112.33
							 C16.53 112.33 16.43 112.33 16.26 112.33 L14.9 111.76 a0.466517 0.466608 0 0 1 -0.533163 -0.333292 C14.03
							 110.53 13.7 109.63 13.43 108.73 a0.366549 0.366621 -180 0 0 -0.333226 -0.299963 L10.86 108.43 C10.63
							 108.43 10.6 108.43 10.46 108.7 C10.2 109.63 9.9 110.53 9.56 111.43 C9.56 111.43 9.56 111.73 9.26 111.76
							 L7.86 112.33 a0.733098 0.733242 0 0 1 -0.533161 1.42109E-14 L4.67 111.03 a0.366549 0.366621 -180 0 0
							 -0.399872 -1.42109E-14 C3.77 111.56 3.27 112.13 2.7 112.63 a0.266581 0.266633 -180 0 0 4.88498E-14 0.39995
							 C3.13 113.86 3.53 114.73 4 115.56 a0.599807 0.599925 0 0 1 -1.33227E-14 0.533268 L3.4 117.39 a0.466517
							 0.466608 0 0 1 -0.399872 0.39995 C2.1 118.13 1.2 118.46 0.3 118.73 C0.07 118.73 0 118.89 0 119.09 L0
							 121.43 C0 121.66 0 121.76 0.27 121.83 C1.2 122.09 2.1 122.46 3 122.73 a0.433194 0.433279 0 0 1 0.333227
							 0.366621 C3.33 123.53 3.73 123.99 3.9 124.46 a0.63313 0.633254 0 0 1 3.55271E-15 0.499937 C3.43 125.86
							 3.03 126.76 2.6 127.66 a0.299904 0.299963 -180 0 0 0 0.366621 L4.27 129.66 C4.27 129.66 4.27 129.83
							 4.53 129.66 L6.13 128.83 L7.3 128.09 C7.3 128.09 7.6 128.09 7.76 128.09 L9.16 128.66 C9.33 128.66 9.4
							 128.83 9.46 128.99 C9.8 129.89 10.13 130.86 10.4 131.76 a0.399872 0.39995 -180 0 0 0.366549 0.299962
							 L12.96 132.06 C13.2 132.06 13.26 132.06 13.36 131.79 C13.66 130.89 14 129.96 14.26 129.06 a0.49984 0.499938
							 0 0 1 0.299904 -0.333292 L15.99 128.16 a0.49984 0.499938 0 0 1 0.433194 0 L19.09 129.46 a0.333226 0.333292
							 -180 0 0 0.399872 -2.84217E-14 C19.99 128.93 20.53 128.36 21.09 127.86 C21.66 127.36 21.26 127.63 21.09
							 127.39 A26.9913 26.9966 0 0 1 19.79 124.79 a0.366549 0.366621 0 0 1 -3.90799E-14 -0.499937 C19.99 123.83
							 20.19 123.39 20.36 122.93 a0.433194 0.433279 0 0 1 0.333227 -0.333292 C21.59 122.26 22.53 121.89 23.43
							 121.63 C23.66 121.63 23.69 121.46 23.69 121.23 C23.69 120.43 23.69 119.76 23.69 119.06 C23.69 118.36
							 23.73 118.79 23.49 118.69 ZM15.63 123.76 L15.36 123.99 A5.26498 5.26601 0 0 1 9.13 124.39 L8.8 124.16
							 A5.36494 5.366 0 0 1 6.7 120.83 A5.09836 5.09936 0 0 1 8.23 116.13 C8.4 115.96 8.4 115.89 8.23 115.73
							 L7.8 115.23 L10.4 115.23 C10.4 115.23 10.56 115.23 10.56 115.23 L10.56 117.79 L9.83 117.09 C9.83 117.09
							 9.83 116.93 9.5 117.09 A3.73214 3.73287 -180 0 0 9.13 122.33 A2.66581 2.66633 -180 0 0 9.7 122.83 L10.1
							 123.03 A3.33226 3.33292 -180 0 0 11.96 123.59 A3.33226 3.33292 -180 0 0 15.1 121.76 A3.63217 3.63288
							 -180 0 0 14.46 117.43 C14.46 117.43 14.13 117.19 14.1 116.96 C14.06 116.73 14.1 116.96 14.1 116.73 A5.39827
							 5.39933 -180 0 0 14.7 116.09 C15.16 115.73 15.16 115.73 15.5 116.09 A5.43159 5.43265 0 0 1 15.63 123.76
							 Z" class="st6"/>
			</g>
		</g>
	</g>
</svg>
